X:1
T:My Heart, So Like the Manger Lowly
T:My Heart, So Like the Manger Lowly
T:Anonymous, before 1918
T:Public Domain Courtesy of the Cyber Hymnal™
T:Public Domain Courtesy of the Cyber Hymnal™
C:Anonymous, before 1918
Z:Public Domain
Z:Courtesy of the Cyber Hymnal™
%%score ( 1 2 ) ( 3 4 )
L:1/8
Q:1/4=88
M:3/4
K:Bb
V:1 treble 
V:2 treble 
V:3 bass 
V:4 bass 
V:1
 [B,D][CE] [DF] | [Fd]3 [Fd] [Fe][Fd] | [Gc]3 [GB] [FA][EG] | [^CG]3 [DF] [FA]>[EG] | %4
w: 1.~O won- drous|grace! for guilt- y|men Was Je- sus|born in Beth- le-|
w: 2.~Men knew not|in such hum- ble|form, Their Lord to|save in love had|
w: 3.~Tho’ He was|rich, free- ly He|gave Up all, that|He the lost might|
w: 4.~I love the|Lord for stoop- ing|so, I’m glad that|He did ev- er|
w: 5.~Like to the|Lord, oh, may I|be! Like Him in|His hu- mil- i-|
w: 6.~O let the|song of praise as-|cend To Je- sus,|who so low did|
 [DF]3 [B,D] [CE][DF] | [Fd]3 [FB] [G=B][Gc] | [Ge]3"^poco rit." [EG] [DF][GB] | %7
w: hem; He laid a-|side His ma- jes-|ty, And came to|
w: come; Al- most un-|heed- ed was the|birth Of our Re-|
w: save; Love, from the|man- ger to the|cross, Made Him in|
w: go Thro’ hu- man|life in hu- man|form, And ev- en|
w: ty; With love like|His, to live a-|lone, To serve and|
w: bend; Tell out the|love that moved His|heart, That led Him|
!f! [GB]3 [FB] [FB]<[FA] | [FB]2 z2 ||"^Refrain" FF G | (z [EA]) Fd c x3 | z [DB] [DB]A c x3 | %12
w: earth a man to|be.||||
w: deem- er on the|earth.||||
w: glad- ness suf- fer|loss.|My heart, so|* like the man-|* ger * low-|
w: shared with man His|tomb.||||
w: bless the need- y|one.||||
w: e’en with life to|part.||||
 (z [EG]) [EA](3:2:1G x113/24 | (z [DF]) FF G x3 | z [EA] FA B x3 | z c>[Gc][Gd] [Ge] x7/2 | %16
w: ||||
w: ||||
w: * ly, Is|* all un- *|* * wor- thy,|* Lord, for Thee;|
w: ||||
w: ||||
w: ||||
!f! [FB]3 [=EB] [_Ed]3!>(! [Ec] | [DB]4!>)! z |] %18
w: ||
w: ||
w: Yet, as Thy home,|by|
w: ||
w: ||
w: ||
V:2
 x3 | x6 | x6 | x6 | x6 | x6 | x6 | x6 | x4 || x3 | A4- E E D x | (c4 EEE) x | (G4- EDF(3:2:2cB) | %13
 F4- C2 E x | A4 E E D x | (d4 DGF) (EE/) | x8 | x5 |] %18
V:3
 [B,,F,][B,,F,] [B,,B,] | [B,,B,]3 B, [A,C]B, | [E,G,]3 [E,G,] [E,A,][E,B,] | %3
w: ~ ~ ~|~ ~ ~ ~|~ ~ ~ ~|
 [B,,B,]3 [B,,B,] [E,B,]>[E,B,] | [B,,B,]3 [B,,F,] [B,,F,][B,,B,] | [B,,B,]3 [D,F,] [D,F,][E,G,] | %6
w: ~ ~ ~ ~|~ ~ ~ ~|~ ~ ~ ~|
 [C,C]3 [C,A,] [D,B,][E,C] | [=E,^C]3 [F,D] [F,=E]<[F,E] | [B,D]2 z2 || z3 | %10
w: ~ ~ ~ ~|~ ~ ~ ~|~||
 z [F,C] [F,C][F,=B,] [F,C] z3 | z [F,A,] [F,A,][F,A,] [B,,B,][B,,B,] z2 | %12
w: My heart so like|the man- ger low- ly,|
 z [G,C] [G,=B,][G,D] [C,C][C,C] z2 x3/8 | z [F,A,]2 [F,C] [B,,B,] z3 | %14
w: Is all un- wor- thy,|Lord, for Thee;|
 z [F,C] [F,C][F,=B,] [F,C] z3 | z [B,,B,] [B,,G,][=B,,G,] [C,G,][C,G,]/[E,G,]/[D,=B,][C,C] x/ | %16
w: Yet, as Thy home,|by grace made ho- ly, * * *|
 [F,D]3 [F,G,] [F,A,]3 [F,A,] | [B,,B,]4 z |] %18
w: ||
V:4
 x3 | x3 B, B, x | x6 | x6 | x6 | x6 | x6 | x6 | x4 || x3 | x8 | x8 | x67/8 | x8 | x8 | x17/2 | %16
 x8 | x5 |] %18

